src/assets/duotone/Bag.svg

<svg width="24" height="24" viewBox="0 0 24 24"  xmlns="http://www.w3.org/2000/svg">
<path opacity="0.4" d="M19.24 5.57957H18.84L15.46 2.19957C15.19 1.92957 14.75 1.92957 14.47 2.19957C14.2 2.46957 14.2 2.90957 14.47 3.18957L16.86 5.57957H7.14L9.53 3.18957C9.8 2.91957 9.8 2.47957 9.53 2.19957C9.26 1.92957 8.82 1.92957 8.54 2.19957L5.17 5.57957H4.77C3.87 5.57957 2 5.57957 2 8.13957C2 9.10957 2.2 9.74957 2.62 10.1696C2.86 10.4196 3.15 10.5496 3.46 10.6196C3.75 10.6896 4.06 10.6996 4.36 10.6996H19.64C19.95 10.6996 20.24 10.6796 20.52 10.6196C21.36 10.4196 22 9.81957 22 8.13957C22 5.57957 20.13 5.57957 19.24 5.57957Z" />
<path d="M19.65 10.7001H4.35996C4.05996 10.7001 3.74996 10.6901 3.45996 10.6201L4.71996 18.3001C4.99996 20.0201 5.74996 22.0001 9.07996 22.0001H14.69C18.06 22.0001 18.66 20.3101 19.02 18.4201L20.53 10.6201C20.25 10.6801 19.95 10.7001 19.65 10.7001ZM10.61 17.1601C10.61 17.5501 10.3 17.8601 9.90996 17.8601C9.51996 17.8601 9.20996 17.5501 9.20996 17.1601V13.8601C9.20996 13.4701 9.51996 13.1601 9.90996 13.1601C10.3 13.1601 10.61 13.4701 10.61 13.8601V17.1601ZM14.89 17.1601C14.89 17.5501 14.58 17.8601 14.19 17.8601C13.8 17.8601 13.49 17.5501 13.49 17.1601V13.8601C13.49 13.4701 13.8 13.1601 14.19 13.1601C14.58 13.1601 14.89 13.4701 14.89 13.8601V17.1601Z" />
</svg>

<?xml version="1.0" encoding="UTF-8"?>
<svg width="24" height="24" viewBox="0 0 24 24" xmlns="http://www.w3.org/2000/svg">
 <path d="m19.24 5.5796h-0.4l-3.38-3.38c-0.27-0.27-0.71-0.27-0.99 0-0.27 0.27-0.27 0.71 0 0.99l2.39 2.39h-9.72l2.39-2.39c0.27-0.27 0.27-0.71 0-0.99-0.27-0.27-0.71-0.27-0.99 0l-3.37 3.38h-0.4c-0.9 0-2.77 0-2.77 2.56 0 0.97 0.2 1.61 0.62 2.03 0.24 0.25 0.53 0.38 0.84 0.45 0.29 0.07 0.6 0.08 0.9 0.08h15.28c0.31 0 0.6-0.02 0.88-0.08 0.84-0.2 1.48-0.80003 1.48-2.48 0-2.56-1.87-2.56-2.76-2.56z" opacity=".4"/>
 <path d="m19.65 10.7h-15.29c-0.3 0-0.61-0.01-0.9-0.08l1.26 7.68c0.28 1.72 1.03 3.7 4.36 3.7h5.61c3.37 0 3.97-1.69 4.33-3.58l1.51-7.8c-0.28 0.06-0.58 0.08-0.88 0.08zm-9.04 6.46c0 0.39-0.31 0.7-0.70004 0.7-0.39 0-0.7-0.31-0.7-0.7v-3.3c0-0.39 0.31-0.7 0.7-0.7 0.39004 0 0.70004 0.31 0.70004 0.7v3.3zm4.28 0c0 0.39-0.31 0.7-0.7 0.7s-0.7-0.31-0.7-0.7v-3.3c0-0.39 0.31-0.7 0.7-0.7s0.7 0.31 0.7 0.7v3.3z"/>
</svg>
